X:196
T:Scotch Bonnet THO1.196
M:C|
L:1/8
Z:vmp. Peter Dunk 2012.from a transcription by Fynn Titford-Mock 2006
B:Thompson's Compleat Collection of 200 Favourite Country Dances Vol.I,1758
Q:1/2=70
K:G
GAB>c d>Bc>B|A>Bc>d e/e/e e2|G>AB>c e>fg>e|d>Bc>A G/G/G G2:|
|:B>GA>B G>FE>D|B>GA>B E/E/E E2|B>GA>B A>FE>D|d>Bc>A G/G/G G2:|
|:g>dB>G g>dB>G|B>GA>B E/E/E E2|g>dB>G g>dB>G|d>Bc>A G/G/G G2:|

